X:1
T:The Old Book and the Old Faith
T:The Old Book and the Old Faith
T:George H. Carr
T:George H. Carr, 1914
T:Public Domain Courtesy of the Cyber Hymnal™
T:Public Domain Courtesy of the Cyber Hymnal™
T:Public Domain Courtesy of the Cyber Hymnal™
C:George H. Carr
Z:Public Domain
Z:Courtesy of the Cyber Hymnal™
%%score ( 1 2 ) ( 3 4 )
L:1/8
Q:1/4=105
M:4/4
K:Db
V:1 treble 
V:2 treble 
V:3 bass 
V:4 bass 
V:1
|: D>[DE] | [DF]2 [FA]2 [FA][DF] [DE]>[DE] | [DF]2 [D=E]2 [DF]2 D>[D_E] | %3
w: 1.~’Mid the|storms of doubt and un- be-|lief, we fear, Stands a|
w: 2.~’Tis the|Book that tells us of the|Fa- ther’s love, When He|
w: 3.~’Tis the|Book that tells us of the|will of God And the|
w: 4.~’Tis the|Book that tells us of e-|ter- nal life, Af- ter|
 [DF]2 [FA]2 [Fd][Fd] [Fc]>[FB] | [Ee]2 [D=G]2 [CA]2 D>[DE] | [DF]2 [FA]2 [FA][DF] [DE]>D | %6
w: Book e- ter- nal that the|saints hold dear; Thro’ the|rest- less ag- es it re-|
w: sent His Son to us from|Heav’n a- bove, Who by|rich- est prom- ise cre- ates|
w: Sav- ior’s teach- ings while the|earth He trod— How He|soothed earth’s sor- rows and re-|
w: faith- ful ser- vice in a|world of strife, And this|glor- ious tri- umph o- ver|
 [DF]2 [EA]2 [Dd]2 [DA]>[=DB] | [Ec]2 [Ae]2 [=Ge]2 A>[Ac] | [Ac][FB][EA][E=G] !fermata![EA]2 || %9
w: mains the same— ’Tis the|Book of God, and the|Bi- ble is its name!|
w: hope with- in, For ’tis|through His blood we are|saved from ev- ery sin!|
w: lieved its woe, Through whom|strength is giv- en to|con- quer ev- ery foe!|
w: death’s dark fears Is the|world’s best gift in an|age of count- less tears.|
"^Refrain" [GA]2 | d4 [Gc]2 [EG]>[Gc] | B4 [DF]2 [DF]>[EG] | [FA]2 [Ad]2 [Gd]2 [Ge]2 | d6 A2 | %14
w: The|old Book and the|old faith Are the|rock on which I|stand! The|
w: ~|~ ~ ~ ~|~ ~ ~ ~|~ ~ ~ ~|~ ~|
w: |||||
w: |||||
 d4 [Gc]2 [EG]>[Gc] | B4 [=FA]2 [FA]>[_FB] | [Ec]2 [Ae]2 [=Ge]2 [EG]2 | A6 [CG]2 | %18
w: old Book and the|old faith Are the|bul- wark of the|land! Thro’|
w: ~ ~ ~ ~|~ ~ ~ ~|~ ~ ~ ~|~ ~|
w: ||||
w: ||||
 [DF]2 D2 [DF]2 A2 | [Dd]3 [Fc] [FB]2 [FA]2 | [E=G]2 E2 [EG]2 [EB]2 | [Ee]3 [Ed] [Ec]2 A2 | %22
w: storm and stress they|stand the test, In|ev- ’ry clime and|na- tion blest; The|
w: ~ ~ ~ ~|~ ~ ~ ~|~ ~ ~ ~|~ ~ ~ ~|
w: ||||
w: ||||
 f4 [Ge]2 [Ge]>[Ff] | d4 _c2 !fermata![Bd]2 [=E=c]>[EB] | [FA]2 [Ad]2 [Gd]2 [Ge]2 | %25
w: old Book and the|old faith Are the hope|* of ev- ’ry|
w: ~ ~ ~ ~|~ ~ ~ ~ ~|* ~ ~ ~|
w: |||
w: |||
 [Fd]6"^Play 3 times" :|"^Grand Chorus" A>A | [Ad]2 [Ae]2 [Af]2 [Ad]>[Ad] | %28
w: land!|||
w: ~|Oh, the|grand old Book and the|
w: |||
w: |||
 [Ge]2 [Af]2 !fermata![Bg]2 [Bf]>[Be] | [Ad]2 [Ad]2 [Ge]2 [Ge]2 | [Fd]6 A>[EA] | %31
w: |||
w: dear old faith Are the|rock on which I|stand! Oh, the|
w: |||
w: |||
 [Ad]2 [Ae]2 [Af]2 [Ad]>[Ad] | [GBe]2 [Bf]2 !fermata![Beg]2 [Bf]>[Be] | %33
w: ||
w: grand old Book and the|dear old faith Are the|
w: ||
w: ||
 [Fda]7/2 [Fda]/ [Gca]7/2 [Fd]/ | !fermata![Fd]6 x3 |] %35
w: ||
w: hope of ev- ’ry|land!|
w: ||
w: ||
V:2
|: D3/2 x/ | x8 | x6 D3/2 x/ | x8 | x6 D3/2 x/ | x15/2 D/ | x8 | x6 A3/2 x/ | x6 || x2 | %10
 (F2 F2) x4 | (F2 F2) x4 | x8 | (F2 G2 F2) (A>G) | (F2 F2) x4 | (_F2 F2) x4 | x8 | (E2 C2 D2) x2 | %18
 x6 (DE) | x8 | x8 | x6 A2 | (A2 A2) x4 | F2 x8 | x8 | x6 :| A>A | x8 | x8 | x8 | x6 A3/2 x/ | x8 | %32
 x8 | x8 | x9 |] %35
V:3
|: [D,F,]>[D,G,] | [D,A,]2 [D,D]2 [D,D][D,A,] [D,G,]>[D,F,] | %2
w: ~ ~|~ ~ ~ ~ ~ ~|
 [D,A,]2 [D,=G,]2 [D,A,]2 [D,F,]>[D,_G,] | [D,A,]2 [D,A,]2 [B,,B,][B,,B,] [C,A,]>[D,B,] | %4
w: ~ ~ ~ ~ ~|~ ~ ~ ~ ~ ~|
 [E,C]2 [E,B,]2 [A,,A,]2 [D,F,]>[D,G,] | [D,A,]2 [D,D]2 [D,D][D,A,] [D,G,]>[D,F,] | %6
w: ~ ~ ~ ~ ~|~ ~ ~ ~ ~ ~|
 [D,A,]2 [C,A,]2 [B,,B,]2 [F,A,]>[_F,A,] | [E,A,]2 [E,C]2 [E,D]2 [F,C]>[F,A,] | %8
w: ~ ~ ~ ~ ~|~ ~ ~ ~ ~|
 [D,A,][D,B,][E,C][E,D] !fermata![A,C]2 || A,2 | [D,A,]2 [D,A,]2 [E,A,]2 [A,,C]>[A,,E] | %11
w: ~ ~ ~ ~ ~|The|grand old Book and the|
 [D,D]2 [D,D]2 [D,A,]2 [D,A,]>[D,A,] | [D,D]2 [F,D]2 [E,B,]2 [A,,C]2 | D2 B,2 A,2 A,2 | %14
w: dear old faith ~ ~|~ ~ ~ on|which I stand! The|
 [D,A,]2 [D,A,]2 [E,A,]2 [A,,C]>[A,,E] | [D,D]2 [A,,D,D]2 [D,D]2 [D,D]>[D,D] | %16
w: grand old Book and the|dear old faith ~ ~|
 [E,A,]2 [C,E]2 [B,,D]2 [E,D]2 | [A,,C]2 [G,E]2 [F,D]2 [E,A,]2 | [D,A,]2 [F,A,]2 [D,A,]2 F,2 | %19
w: ~ ~ ~ ~|~ ~ ~ ~|~ ~ ~ ~|
 [B,,B,]3 [C,=A,] [D,B,]2 [=D,B,]2 | [E,B,]2 [E,=G,]2 [E,B,]2 G,2 | %21
w: ~ ~ ~ ~|~ ~ ~ ~|
 [C,A,]3 [B,,=G,] [A,,A,]2 [A,C]2 | [D,D]2 [F,D]2 [A,C]2 [A,C]>[=A,C] | %23
w: ~ ~ ~ The|grand old Book and the|
 [B,D]2 [F,D]2 !fermata![G,D]2 [=G,D]>[G,D] x2 | [A,D]2 [F,D]2 [E,B,]2 [A,C]2 | %25
w: dear old faith * *||
 [D,D]6"^Play 3 times" :| A,>[G,C] | [F,A,]2 [E,C]2 [D,D]2 [F,D]>[F,D] | %28
w: |||
 [G,B,]2 [F,B,]2 !fermata![E,E]2 [F,D]>[G,E] | [A,F]2 [F,D]2 [E,B,]2 [A,C]2 | [D,D]6 A,>[G,C] | %31
w: |||
 [F,A,]2 [E,C]2 [D,D]2 [F,D]>[F,D] | [G,B,]2 [F,B,]2 [E,E]2 [F,D]>[G,E] | %33
w: ||
 [A,D]7/2 [A,D]/ [A,,A,G]7/2 [D,A,]/ | [D,A,]6 !fermata!D,,3 |] %35
w: ||
V:4
|: x2 | x8 | x8 | x8 | x8 | x8 | x8 | x8 | x6 || A,2 | x8 | x8 | x8 | D,6 A,2 | x8 | x8 | x8 | x8 | %18
 x6 (D,C,) | x8 | x6 (E,D,) | x8 | x8 | x10 | x8 | x6 :| A,3/2 x/ | x8 | x8 | x8 | x6 A,3/2 x/ | %31
 x8 | x8 | x8 | D,B,,F,, x6 |] %35

